X:662
T:Reel 662
M:4/4
K:Cmaj
L:1/8
GF|ECDB, G,CC2|DB,FE DB,DF|ECDB,  (3CB,G, EC||GABG FDB,D:||2ECEG c2Bc|dcBA GcBA|GFEC B,CB,A|GFGA BcBA|GFDB, C2EF|GABG FDB,D|GFEG FDB,D|G2FD ECDB,|CB,CE G2BA|GFGA BGFD|GccB c2cA|BcdB cBAG|FDB,D F2FE|G2DG EDEF|GccB c2BA|BcdB cBAc|BGFD C2|
